X: 29996
T: Ode To Whiskey
R: jig
M: 6/8
K: Dmajor
d|dcB A>BG|F2 D D2 E/F/|G>AB B>cd|c/d/ec Afe|
dcB ABG|FAF DFA|Bde c>Ac|d3 d3|
f2 d g2 e|f2 d Bcd|efd cdB|A2 F F2 A|
f>ed gfe|{fg}a2 f d2 c/d/|Bef ecA|d3 d2||

